packages/calcite-ui-icons/icons/browser-join-16.svg

<?xml version="1.0" encoding="UTF-8"?><svg id="icons" xmlns="http://www.w3.org/2000/svg" viewBox="0 0 16 16"><defs><style>.cls-1{fill:none;}</style></defs><rect class="cls-1" width="16" height="16"/><path d="M5,5h10v9h-5.388l-.99976,1h7.38776V1H0v9h1v-5h3v3.37433l1-.99977v-2.37456ZM15,4h-1v-1h-1v1H1v-2h14v2ZM8.20654,12.5l-2.7876,2.79199-.70801-.70703,1.58313-1.58496H0v-1h6.2937l-1.58228-1.58301.70703-.70703,2.78809,2.79004Z"/></svg>

<svg xmlns="http://www.w3.org/2000/svg" viewBox="0 0 16 16"><path fill="none" d="M0 0h16v16H0z"/><path d="M5 5h10v9H9.612l-1 1H16V1H0v9h1V5h3v3.374l1-1V5zm10-1h-1V3h-1v1H1V2h14v2zm-6.793 8.5l-2.788 2.792-.708-.707L6.294 13H0v-1h6.294L4.71 10.417l.707-.707 2.789 2.79z"/></svg>
